to poly [ :numsides :length ]
[
  repeat :numsides
  [
    fd :length 
    rt quotient 360 :numsides
  ]
]

to triangle [ :side ]
[
  fd :side
  lt 120
  fd :side
  lt 120
  fd :side
]

to square [ :side ]
[
  fd :side
  lt 90
  fd :side
  lt 90
  fd :side
  lt 90
  fd :side	
]

to house [ :size ]
[
  square :size
  fd :size rt 30
  triangle :size
]


house 100
